!!!!SEGMENT: pl-sa--l-1636--020_anonim--keyboard-piece.krn
!!!cenid: 17xx:727
!!!COM: Anonim
!!!COM-rismid: pe30004985
!!!CDT:
!!!CNT:
!!!OTL: [Keyboard piece]
!!!PDT:
!!!AGN: Secular
!!!SMS-siglum: PL-SA
!!!SMS-shelfmark: L 1636
!!!SMS-shelfwork: 020 W
!!!SMS-variant:
!!!SMS-altvar:
!!!NIFC-rismid: 1001076418
!!!URL-scan: http://repozytorium.nifc.pl/skany/pl-sa-nut--l1636
!!!ONB-nifc: 6v, skan 0010, s. 1
**kern	**kern
*part1	*part1
*staff2	*staff1
*Iempty	*Iempty
*I"	*I"
*I'keyb	*I'keyb
*clefF4	*clefC1
*k[]	*k[]
*d:	*d:
*M2/2	*M2/2
*met(c|)	*met(c|)
=1	=1
*2\right	*2\right
!LO:TX:a:t=P:problem:all\right:global	!LO:TX:a:t=P:problem:all\right:global
!	!LO:TX:a:t=P:problem:druk uszkodzony, prawdopodobnie nie widać drugiej warstwy
1AA 1C 1E 1A	2a/
.	2g/
=2	=2
*^	*
1A	2D/	1d 1f
.	2C/	.
=3	=3	=3
*	*	*^
1G	2BB-X\	2e/	2d\
.	2C\	2d/	2ryy
*	*	*v	*v
=4	=4	=4
2F/	2FF/	4f/
.	.	4a\
4.E/	2GG\	(>4.gT>/
8D/	.	8f/)
=5	=5	=5
8C#X/L	1AA	8e/L
8D/	.	8f/
8E/	.	8g/
8C#/J	.	8e/J
8F/L	.	8a\L
8E/	.	8g\
8F/	.	8a\
8D/J	.	8f\J
=6	=6	=6
8E/L	1AA	8g\L
8D/	.	8f\
8E/	.	8g\
8C#/J	.	8e\J
8D/L	.	8f/L
8C#/	.	8e/
8D/	.	8f/
8BB/J	.	8d/J
=7	=7	=7
4E/	1AA	4c#X/
4F/	.	4.d/
2E/	.	.
.	.	16c#/LL
.	.	16B/JJ
.	.	8A/L
.	.	8G/J
*v	*v	*
=8	=8
1DD 1AA 1D	1F 1A 1d
!LO:TX:a:t=P:problem:końcowa kreska z obustronną repetycją	!
==:|!	==:|!
*-	*-
!!!system-decoration: {(s1,s2)}
!!!RDF**kern: > = above
!!!RDF**kern: < = below
!!!EED: Mateusz Mrugas
!!!EST: 2020-12-07
!!!AIN: 1 empty
!!!ENC: Tomasz Grochalski
!!!END: 2020-06-11
